images/fundo.svg

<?xml version="1.0" encoding="utf-8"?>
<!-- Generator: Adobe Illustrator 26.0.0, SVG Export Plug-In . SVG Version: 6.00 Build 0)  -->
<svg version="1.1" id="Layer_2_00000057108700822018874200000016591534994223042488_"
	 xmlns="http://www.w3.org/2000/svg" xmlns:xlink="http://www.w3.org/1999/xlink" x="0px" y="0px" viewBox="0 0 1000.5 700.5"
	 style="enable-background:new 0 0 1000.5 700.5;" xml:space="preserve">
<style type="text/css">
	.st0{fill:url(#SVGID_1_);}
	
		.st1{fill:url(#SVGID_00000054966063012565780520000002568602299930880128_);stroke:#42210B;stroke-width:1.1389;stroke-miterlimit:10;}
	
		.st2{fill:url(#SVGID_00000085240048728248952120000004692637992677946008_);stroke:#42210B;stroke-width:1.1389;stroke-miterlimit:10;}
	
		.st3{fill:url(#SVGID_00000055672822045408576250000003385592549175753109_);stroke:#42210B;stroke-width:1.1389;stroke-miterlimit:10;}
	
		.st4{fill:url(#SVGID_00000088095434463997881760000013508978713228455326_);stroke:#42210B;stroke-width:1.1389;stroke-miterlimit:10;}
	
		.st5{fill:url(#SVGID_00000158018630368644650220000000791811544057913483_);stroke:#42210B;stroke-width:1.1389;stroke-miterlimit:10;}
	.st6{fill:#754C24;}
	.st7{fill:#966E44;}
	.st8{fill:#D7B275;}
	.st9{fill:none;stroke:#AD8653;stroke-width:0.5622;stroke-miterlimit:10;}
	.st10{fill:#283A51;}
	.st11{fill:#C1272D;}
	.st12{fill:#FFF9B4;}
	.st13{fill:#FFE89F;}
	.st14{fill:none;stroke:#262626;stroke-width:0.7263;stroke-miterlimit:10;}
	.st15{fill:#F7931E;}
	.st16{fill:#FBB03B;}
	.st17{fill:#FCD621;}
</style>
<radialGradient id="SVGID_1_" cx="415.792" cy="1859.9907" r="448.3562" gradientTransform="matrix(1.1116 0 0 1.1667 38.0556 -1820.0511)" gradientUnits="userSpaceOnUse">
	<stop  offset="0" style="stop-color:#93278F"/>
	<stop  offset="0.39" style="stop-color:#7D1E8B"/>
	<stop  offset="1" style="stop-color:#520D83"/>
</radialGradient>
<polygon class="st0" points="0,0 0,485.1 0,700 1000.5,700 1000.5,0 "/>
<g>
	
		<radialGradient id="SVGID_00000107572495785370450380000001842832252819079821_" cx="415.7032" cy="2225.9946" r="317.9745" gradientTransform="matrix(1.1118 0 0 1.1667 38.0712 -1912.218)" gradientUnits="userSpaceOnUse">
		<stop  offset="0" style="stop-color:#B06239"/>
		<stop  offset="0.17" style="stop-color:#A55B34"/>
		<stop  offset="0.47" style="stop-color:#864927"/>
		<stop  offset="0.86" style="stop-color:#552C13"/>
		<stop  offset="1" style="stop-color:#42210B"/>
	</radialGradient>
	
		<rect x="0.5" y="669.7" style="fill:url(#SVGID_00000107572495785370450380000001842832252819079821_);stroke:#42210B;stroke-width:1.1389;stroke-miterlimit:10;" width="999.5" height="30.3"/>
	
		<radialGradient id="SVGID_00000018923839290767815600000007720330909028628143_" cx="415.7032" cy="2200.9668" r="317.9745" gradientTransform="matrix(1.1118 0 0 1.1667 38.0712 -1912.218)" gradientUnits="userSpaceOnUse">
		<stop  offset="0" style="stop-color:#B06239"/>
		<stop  offset="0.17" style="stop-color:#A55B34"/>
		<stop  offset="0.47" style="stop-color:#864927"/>
		<stop  offset="0.86" style="stop-color:#552C13"/>
		<stop  offset="1" style="stop-color:#42210B"/>
	</radialGradient>
	
		<rect x="0.5" y="640.5" style="fill:url(#SVGID_00000018923839290767815600000007720330909028628143_);stroke:#42210B;stroke-width:1.1389;stroke-miterlimit:10;" width="999.5" height="30.3"/>
	
		<radialGradient id="SVGID_00000134935845947835711810000015893491272313157038_" cx="415.7032" cy="2175.9795" r="317.9737" gradientTransform="matrix(1.1118 0 0 1.1667 38.0712 -1912.218)" gradientUnits="userSpaceOnUse">
		<stop  offset="0" style="stop-color:#B06239"/>
		<stop  offset="0.17" style="stop-color:#A55B34"/>
		<stop  offset="0.47" style="stop-color:#864927"/>
		<stop  offset="0.86" style="stop-color:#552C13"/>
		<stop  offset="1" style="stop-color:#42210B"/>
	</radialGradient>
	
		<rect x="0.5" y="611.3" style="fill:url(#SVGID_00000134935845947835711810000015893491272313157038_);stroke:#42210B;stroke-width:1.1389;stroke-miterlimit:10;" width="999.5" height="30.3"/>
	
		<radialGradient id="SVGID_00000007402918198676328300000006947894182072167575_" cx="415.7032" cy="2149.9683" r="317.9745" gradientTransform="matrix(1.1118 0 0 1.1667 38.0712 -1912.218)" gradientUnits="userSpaceOnUse">
		<stop  offset="0" style="stop-color:#B06239"/>
		<stop  offset="0.17" style="stop-color:#A55B34"/>
		<stop  offset="0.47" style="stop-color:#864927"/>
		<stop  offset="0.86" style="stop-color:#552C13"/>
		<stop  offset="1" style="stop-color:#42210B"/>
	</radialGradient>
	
		<rect x="0.5" y="581" style="fill:url(#SVGID_00000007402918198676328300000006947894182072167575_);stroke:#42210B;stroke-width:1.1389;stroke-miterlimit:10;" width="999.5" height="30.3"/>
	
		<radialGradient id="SVGID_00000032608261482542471030000011026644553025535653_" cx="415.7032" cy="2125.969" r="317.9745" gradientTransform="matrix(1.1118 0 0 1.1667 38.0712 -1912.218)" gradientUnits="userSpaceOnUse">
		<stop  offset="0" style="stop-color:#B06239"/>
		<stop  offset="0.17" style="stop-color:#A55B34"/>
		<stop  offset="0.47" style="stop-color:#864927"/>
		<stop  offset="0.86" style="stop-color:#552C13"/>
		<stop  offset="1" style="stop-color:#42210B"/>
	</radialGradient>
	
		<rect x="0.5" y="553" style="fill:url(#SVGID_00000032608261482542471030000011026644553025535653_);stroke:#42210B;stroke-width:1.1389;stroke-miterlimit:10;" width="999.5" height="30.3"/>
</g>
<g id="Layer_1-2">
	<g>
		<g>
			<rect x="654.4" y="278.3" class="st6" width="304.4" height="23.3"/>
			<polygon class="st7" points="958.8,278.3 654.4,278.3 661.3,240.9 958.8,240.9 			"/>
		</g>
	</g>
</g>
<g>
	<path class="st7" d="M74.4,462.8l-66-354.9c0.3-0.4,1.8-2.8,4.9-3.5c3.3-0.7,5.8,1.1,6.2,1.4c22,118.3,44,236.6,66,354.9
		L74.4,462.8z"/>
	<path class="st8" d="M147.2,567.1c-4.2,2.9-10.3,6.6-17.9,10c-5.4,2.4-11.6,4.7-18.5,6.6c-2.8,0.7-5.8,1.4-8.9,2
		c-3.5,0.6-6.9,1.1-10.2,1.4c-7.2,0.7-13.8,0.7-19.7,0.2c-8.4-0.6-15.4-2-20.3-3.2c0.4-16.8,1.9-36.1,5.5-57.2
		c2.7-15.7,6.1-29.6,9.6-41.6c2.1-0.4,4.3-0.8,6.4-1.2c2.1-0.4,4.2-0.8,6.3-1.1c2.1-0.4,4.3-0.8,6.4-1.1c2.1-0.4,4.2-0.8,6.4-1.1
		c2.1-0.4,4.2-0.7,6.3-1.1c7.8,9.9,16.5,22.2,25,37.1C134.3,535.1,141.8,552.5,147.2,567.1z"/>
	<line class="st9" x1="73.2" y1="484.2" x2="71.9" y2="586.9"/>
	<line class="st9" x1="79.6" y1="483" x2="91.6" y2="587.3"/>
	<line class="st9" x1="85.9" y1="481.9" x2="110.7" y2="583.9"/>
	<line class="st9" x1="92.3" y1="480.8" x2="129.2" y2="576.7"/>
	<path class="st8" d="M96.2,465.6l-6.4,1.1l-6.4,1.1L77,469l-6.4,1.1l-6.4,1.1l-18.5-37.4c3.1-1.5,6.9-3.2,11.3-4.7
		c3.1-1.1,6.4-2.1,10-2.9c1.5-0.4,3.2-0.7,4.8-1c2.1-0.4,4.2-0.7,6.1-0.9c4-0.5,7.7-0.7,11.2-0.7c4.3-0.1,8.1,0.2,11.4,0.5
		C99.1,437.9,97.6,451.8,96.2,465.6z"/>
	<line class="st9" x1="56.8" y1="429.3" x2="70.7" y2="470.2"/>
	<path class="st9" d="M77.1,469l-10.2-42.8"/>
	<line class="st9" x1="79.8" y1="423.9" x2="84.2" y2="467.7"/>
	<line class="st9" x1="90.2" y1="423.5" x2="90.6" y2="466.7"/>
	<path class="st10" d="M34.7,113.5"/>
	<path class="st11" d="M97.3,470.8L65,476.6c-0.3-0.2-1.1-0.8-1.4-1.9c-0.5-1.7,0.4-3.1,0.5-3.3c10.8-1.9,21.5-3.8,32.3-5.8
		c0.2,0.1,1.5,1.2,1.6,2.9C98,469.7,97.5,470.5,97.3,470.8z"/>
	<path class="st11" d="M98.2,475.3L66,481.1c-0.3-0.2-1.1-0.8-1.4-1.9c-0.5-1.7,0.4-3.1,0.5-3.3c10.8-1.9,21.5-3.8,32.3-5.8
		c0.2,0.1,1.5,1.2,1.6,2.9C99,474.2,98.4,475,98.2,475.3z"/>
	<path class="st11" d="M99.2,480.4l-32.3,5.8c-0.3-0.2-1.1-0.8-1.4-1.9c-0.5-1.7,0.4-3.1,0.5-3.3c10.8-1.9,21.5-3.8,32.3-5.8
		c0.2,0.1,1.5,1.2,1.6,2.9C99.9,479.3,99.4,480.1,99.2,480.4z"/>
</g>
<g>
	<path class="st12" d="M577.3,595.9c-1.1,0.6-6.3,3.5-14.5,3.5c-1.5,0-8.6-0.1-14.5-3.5c0-26.5,0-53.1,0-79.6
		c1.9-0.8,7.2-2.6,14.5-2.6c2.3,0,8.4,0.2,14.5,2.6C577.3,542.8,577.3,569.3,577.3,595.9z"/>
	<path class="st13" d="M577.3,595.9c-1.1,0.6-6.3,3.5-14.5,3.5c-1.5,0-8.6-0.1-14.5-3.5c0-26.5,0-52.8,0-79.3
		c0.4,0.4,5.5,2.6,14.5,2.6s14.1-2.2,14.5-2.6C577.3,543.1,577.3,569.4,577.3,595.9z"/>
	<line class="st14" x1="562.8" y1="516.6" x2="562.8" y2="512.2"/>
	<path class="st15" d="M571.7,496.8l-3.9-7.3l-4.6-8.8l-4.6,8.8l-3.7,7c-1.5,2.9-2,5-2,6.3c0,5.9,4.6,10.7,10.3,10.7
		s10.3-4.8,10.3-10.7C573.4,501,572.6,498.8,571.7,496.8z"/>
	<path class="st16" d="M563.1,513.6c-5.1,0-9.2-4.3-9.2-9.6c0-0.7,0.2-2.5,1.9-5.8l7.3-13.9l7.5,14.2c1.1,2.3,1.7,4.1,1.7,5.5
		C572.4,509.2,568.2,513.6,563.1,513.6z"/>
	<path class="st17" d="M563.1,513.6c-4,0-7.3-3.4-7.3-7.7c0-0.3,0.1-1.9,1.7-5l5.6-10.7l5.8,11c1,1.9,1.4,3.5,1.4,4.6
		C570.4,510.1,567.2,513.6,563.1,513.6z"/>
	<path class="st12" d="M610.7,607.8c-1.1,0.6-6.3,3.5-14.5,3.5c-1.5,0-8.6-0.1-14.5-3.5c0-26.5,0-53.1,0-79.6
		c1.9-0.8,7.2-2.6,14.5-2.6c2.3,0,8.4,0.2,14.5,2.6C610.7,554.8,610.7,581.3,610.7,607.8z"/>
	<path class="st13" d="M610.7,607.8c-1.1,0.6-6.3,3.5-14.5,3.5c-1.5,0-8.6-0.1-14.5-3.5c0-26.5,0-52.8,0-79.3
		c0.4,0.4,5.5,2.6,14.5,2.6s14.1-2.2,14.5-2.6C610.7,555,610.7,581.3,610.7,607.8z"/>
	<line class="st14" x1="596.2" y1="528.5" x2="596.2" y2="524.2"/>
	<path class="st15" d="M605.1,508.8l-3.9-7.3l-4.6-8.8l-4.6,8.8l-3.7,7c-1.5,2.9-2,5-2,6.3c0,5.9,4.6,10.7,10.3,10.7
		s10.3-4.8,10.3-10.7C606.9,512.9,606.1,510.8,605.1,508.8z"/>
	<path class="st16" d="M596.6,525.5c-5.1,0-9.2-4.3-9.2-9.6c0-0.7,0.2-2.5,1.9-5.8l7.3-13.9l7.5,14.2c1.1,2.3,1.7,4.1,1.7,5.5
		C605.8,521.2,601.6,525.5,596.6,525.5z"/>
	<path class="st17" d="M596.6,525.5c-4,0-7.3-3.4-7.3-7.7c0-0.3,0.1-1.9,1.7-5l5.6-10.7l5.8,11c1,1.9,1.4,3.5,1.4,4.6
		C603.8,522.1,600.6,525.5,596.6,525.5z"/>
	<path class="st12" d="M644.5,588.6c-1.1,0.6-6.3,3.5-14.5,3.5c-1.5,0-8.6-0.1-14.5-3.5c0-26.5,0-53.1,0-79.6
		c1.9-0.8,7.2-2.6,14.5-2.6c2.3,0,8.4,0.2,14.5,2.6C644.5,535.5,644.5,562,644.5,588.6z"/>
	<path class="st13" d="M644.5,588.6c-1.1,0.6-6.3,3.5-14.5,3.5c-1.5,0-8.6-0.1-14.5-3.5c0-26.5,0-52.8,0-79.3
		c0.4,0.4,5.5,2.6,14.5,2.6s14.1-2.2,14.5-2.6C644.5,535.8,644.5,562.1,644.5,588.6z"/>
	<line class="st14" x1="630" y1="509.3" x2="630" y2="504.9"/>
	<path class="st15" d="M638.8,489.5l-3.9-7.3l-4.6-8.8l-4.6,8.8l-3.7,7c-1.5,2.9-2,5-2,6.3c0,5.9,4.6,10.7,10.3,10.7
		s10.3-4.8,10.3-10.7C640.6,493.7,639.8,491.5,638.8,489.5z"/>
	<path class="st16" d="M630.3,506.2c-5.1,0-9.2-4.3-9.2-9.6c0-0.7,0.2-2.5,1.9-5.8l7.3-13.9l7.5,14.2c1.1,2.3,1.7,4.1,1.7,5.5
		C639.5,501.9,635.4,506.2,630.3,506.2z"/>
	<path class="st17" d="M630.3,506.2c-4,0-7.3-3.4-7.3-7.7c0-0.3,0.1-1.9,1.7-5l5.6-10.7l5.8,11c1,1.9,1.4,3.5,1.4,4.6
		C637.6,502.8,634.3,506.2,630.3,506.2z"/>
</g>
</svg>

<svg width="1000" height="700" viewBox="0 0 1000 700" fill="none" xmlns="http://www.w3.org/2000/svg">
<g clip-path="url(#clip0_10_419)">
<mask id="mask0_10_419" style="mask-type:luminance" maskUnits="userSpaceOnUse" x="0" y="0" width="1000" height="700">
<path d="M1000 0H0V700H1000V0Z" fill="white"/>
</mask>
<g mask="url(#mask0_10_419)">
<path d="M1000 0H0V700H1000V0Z" fill="white"/>
<path d="M0 0V485.1V700H1000.5V0H0Z" fill="url(#paint0_radial_10_419)"/>
<path d="M1000 669.7H0.5V700H1000V669.7Z" fill="url(#paint1_radial_10_419)" stroke="#42210B" stroke-width="1.1389" stroke-miterlimit="10"/>
<path d="M1000 640.5H0.5V670.8H1000V640.5Z" fill="url(#paint2_radial_10_419)" stroke="#42210B" stroke-width="1.1389" stroke-miterlimit="10"/>
<path d="M1000 611.3H0.5V641.6H1000V611.3Z" fill="url(#paint3_radial_10_419)" stroke="#42210B" stroke-width="1.1389" stroke-miterlimit="10"/>
<path d="M1000 581H0.5V611.3H1000V581Z" fill="url(#paint4_radial_10_419)" stroke="#42210B" stroke-width="1.1389" stroke-miterlimit="10"/>
<path d="M1000 553H0.5V583.3H1000V553Z" fill="url(#paint5_radial_10_419)" stroke="#42210B" stroke-width="1.1389" stroke-miterlimit="10"/>
<path d="M958.8 278.3H654.4V301.6H958.8V278.3Z" fill="#754C24"/>
<path d="M958.8 278.3H654.4L661.3 240.9H958.8V278.3Z" fill="#966E44"/>
<path d="M958.8 428.3H654.4V451.6H958.8V428.3Z" fill="#754C24"/>
<path d="M958.8 428.3H654.4L661.3 390.9H958.8V428.3Z" fill="#966E44"/>
<path d="M74.4 462.8L8.39996 107.9C8.69996 107.5 10.2 105.1 13.3 104.4C16.6 103.7 19.1 105.5 19.5 105.8C41.5 224.1 63.5 342.4 85.5 460.7L74.4 462.8Z" fill="#966E44"/>
<path d="M147.2 567.1C143 570 136.9 573.7 129.3 577.1C123.9 579.5 117.7 581.8 110.8 583.7C108 584.4 105 585.1 101.9 585.7C98.4 586.3 95 586.8 91.7 587.1C84.5 587.8 77.9 587.8 72 587.3C63.6 586.7 56.6 585.3 51.7 584.1C52.1 567.3 53.6 548 57.2 526.9C59.9 511.2 63.3 497.3 66.8 485.3C68.9 484.9 71.1 484.5 73.2 484.1C75.3 483.7 77.4 483.3 79.5 483C81.6 482.6 83.8 482.2 85.9 481.9C88 481.5 90.1 481.1 92.3 480.8C94.4 480.4 96.5 480.1 98.6 479.7C106.4 489.6 115.1 501.9 123.6 516.8C134.3 535.1 141.8 552.5 147.2 567.1Z" fill="#D7B275"/>
<path d="M73.2 484.2L71.9 586.9" stroke="#AD8653" stroke-width="0.5622" stroke-miterlimit="10"/>
<path d="M79.6 483L91.6 587.3" stroke="#AD8653" stroke-width="0.5622" stroke-miterlimit="10"/>
<path d="M85.9 481.9L110.7 583.9" stroke="#AD8653" stroke-width="0.5622" stroke-miterlimit="10"/>
<path d="M92.3 480.8L129.2 576.7" stroke="#AD8653" stroke-width="0.5622" stroke-miterlimit="10"/>
<path d="M96.2 465.6L89.8 466.7L83.4 467.8L77 469L70.6 470.1L64.2 471.2L45.7 433.8C48.8 432.3 52.6 430.6 57 429.1C60.1 428 63.4 427 67 426.2C68.5 425.8 70.2 425.5 71.8 425.2C73.9 424.8 76 424.5 77.9 424.3C81.9 423.8 85.6 423.6 89.1 423.6C93.4 423.5 97.2 423.8 100.5 424.1C99.1 437.9 97.6 451.8 96.2 465.6Z" fill="#D7B275"/>
<path d="M56.8 429.3L70.7 470.2" stroke="#AD8653" stroke-width="0.5622" stroke-miterlimit="10"/>
<path d="M77.1 469L66.9 426.2" stroke="#AD8653" stroke-width="0.5622" stroke-miterlimit="10"/>
<path d="M79.8 423.9L84.2 467.7" stroke="#AD8653" stroke-width="0.5622" stroke-miterlimit="10"/>
<path d="M90.2 423.5L90.6 466.7" stroke="#AD8653" stroke-width="0.5622" stroke-miterlimit="10"/>
<path d="M97.3 470.8L65 476.6C64.7 476.4 63.9 475.8 63.6 474.7C63.1 473 64 471.6 64.1 471.4C74.9 469.5 85.6 467.6 96.4 465.6C96.6 465.7 97.9 466.8 98 468.5C98 469.7 97.5 470.5 97.3 470.8Z" fill="#C1272D"/>
<path d="M98.2 475.3L66 481.1C65.7 480.9 64.9 480.3 64.6 479.2C64.1 477.5 65 476.1 65.1 475.9C75.9 474 86.6 472.1 97.4 470.1C97.6 470.2 98.9 471.3 99 473C99 474.2 98.4 475 98.2 475.3Z" fill="#C1272D"/>
<path d="M99.2 480.4L66.9 486.2C66.6 486 65.8 485.4 65.5 484.3C65 482.6 65.9 481.2 66 481C76.8 479.1 87.5 477.2 98.3 475.2C98.5 475.3 99.8 476.4 99.9 478.1C99.9 479.3 99.4 480.1 99.2 480.4Z" fill="#C1272D"/>
<path d="M577.3 595.9C576.2 596.5 571 599.4 562.8 599.4C561.3 599.4 554.2 599.3 548.3 595.9C548.3 569.4 548.3 542.8 548.3 516.3C550.2 515.5 555.5 513.7 562.8 513.7C565.1 513.7 571.2 513.9 577.3 516.3C577.3 542.8 577.3 569.3 577.3 595.9Z" fill="#FFF9B4"/>
<path d="M577.3 595.9C576.2 596.5 571 599.4 562.8 599.4C561.3 599.4 554.2 599.3 548.3 595.9C548.3 569.4 548.3 543.1 548.3 516.6C548.7 517 553.8 519.2 562.8 519.2C571.8 519.2 576.9 517 577.3 516.6C577.3 543.1 577.3 569.4 577.3 595.9Z" fill="#FFE89F"/>
<path d="M562.8 516.6V512.2" stroke="#262626" stroke-width="0.7263" stroke-miterlimit="10"/>
<path d="M571.7 496.8L567.8 489.5L563.2 480.7L558.6 489.5L554.9 496.5C553.4 499.4 552.9 501.5 552.9 502.8C552.9 508.7 557.5 513.5 563.2 513.5C568.9 513.5 573.5 508.7 573.5 502.8C573.4 501 572.6 498.8 571.7 496.8Z" fill="#F7931E"/>
<path d="M563.1 513.6C558 513.6 553.9 509.3 553.9 504C553.9 503.3 554.1 501.5 555.8 498.2L563.1 484.3L570.6 498.5C571.7 500.8 572.3 502.6 572.3 504C572.4 509.2 568.2 513.6 563.1 513.6Z" fill="#FBB03B"/>
<path d="M563.1 513.6C559.1 513.6 555.8 510.2 555.8 505.9C555.8 505.6 555.9 504 557.5 500.9L563.1 490.2L568.9 501.2C569.9 503.1 570.3 504.7 570.3 505.8C570.4 510.1 567.2 513.6 563.1 513.6Z" fill="#FCD621"/>
<path d="M610.7 607.8C609.6 608.4 604.4 611.3 596.2 611.3C594.7 611.3 587.6 611.2 581.7 607.8C581.7 581.3 581.7 554.7 581.7 528.2C583.6 527.4 588.9 525.6 596.2 525.6C598.5 525.6 604.6 525.8 610.7 528.2C610.7 554.8 610.7 581.3 610.7 607.8Z" fill="#FFF9B4"/>
<path d="M610.7 607.8C609.6 608.4 604.4 611.3 596.2 611.3C594.7 611.3 587.6 611.2 581.7 607.8C581.7 581.3 581.7 555 581.7 528.5C582.1 528.9 587.2 531.1 596.2 531.1C605.2 531.1 610.3 528.9 610.7 528.5C610.7 555 610.7 581.3 610.7 607.8Z" fill="#FFE89F"/>
<path d="M596.2 528.5V524.2" stroke="#262626" stroke-width="0.7263" stroke-miterlimit="10"/>
<path d="M605.1 508.8L601.2 501.5L596.6 492.7L592 501.5L588.3 508.5C586.8 511.4 586.3 513.5 586.3 514.8C586.3 520.7 590.9 525.5 596.6 525.5C602.3 525.5 606.9 520.7 606.9 514.8C606.9 512.9 606.1 510.8 605.1 508.8Z" fill="#F7931E"/>
<path d="M596.6 525.5C591.5 525.5 587.4 521.2 587.4 515.9C587.4 515.2 587.6 513.4 589.3 510.1L596.6 496.2L604.1 510.4C605.2 512.7 605.8 514.5 605.8 515.9C605.8 521.2 601.6 525.5 596.6 525.5Z" fill="#FBB03B"/>
<path d="M596.6 525.5C592.6 525.5 589.3 522.1 589.3 517.8C589.3 517.5 589.4 515.9 591 512.8L596.6 502.1L602.4 513.1C603.4 515 603.8 516.6 603.8 517.7C603.8 522.1 600.6 525.5 596.6 525.5Z" fill="#FCD621"/>
<path d="M644.5 588.6C643.4 589.2 638.2 592.1 630 592.1C628.5 592.1 621.4 592 615.5 588.6C615.5 562.1 615.5 535.5 615.5 509C617.4 508.2 622.7 506.4 630 506.4C632.3 506.4 638.4 506.6 644.5 509C644.5 535.5 644.5 562 644.5 588.6Z" fill="#FFF9B4"/>
<path d="M644.5 588.6C643.4 589.2 638.2 592.1 630 592.1C628.5 592.1 621.4 592 615.5 588.6C615.5 562.1 615.5 535.8 615.5 509.3C615.9 509.7 621 511.9 630 511.9C639 511.9 644.1 509.7 644.5 509.3C644.5 535.8 644.5 562.1 644.5 588.6Z" fill="#FFE89F"/>
<path d="M630 509.3V504.9" stroke="#262626" stroke-width="0.7263" stroke-miterlimit="10"/>
<path d="M638.8 489.5L634.9 482.2L630.3 473.4L625.7 482.2L622 489.2C620.5 492.1 620 494.2 620 495.5C620 501.4 624.6 506.2 630.3 506.2C636 506.2 640.6 501.4 640.6 495.5C640.6 493.7 639.8 491.5 638.8 489.5Z" fill="#F7931E"/>
<path d="M630.3 506.2C625.2 506.2 621.1 501.9 621.1 496.6C621.1 495.9 621.3 494.1 623 490.8L630.3 476.9L637.8 491.1C638.9 493.4 639.5 495.2 639.5 496.6C639.5 501.9 635.4 506.2 630.3 506.2Z" fill="#FBB03B"/>
<path d="M630.3 506.2C626.3 506.2 623 502.8 623 498.5C623 498.2 623.1 496.6 624.7 493.5L630.3 482.8L636.1 493.8C637.1 495.7 637.5 497.3 637.5 498.4C637.6 502.8 634.3 506.2 630.3 506.2Z" fill="#FCD621"/>
</g>
</g>
<defs>
<radialGradient id="paint0_radial_10_419" cx="0" cy="0" r="1" gradientUnits="userSpaceOnUse" gradientTransform="translate(500.25 350) scale(498.393 523.097)">
<stop stop-color="#93278F"/>
<stop offset="0.39" stop-color="#7D1E8B"/>
<stop offset="1" stop-color="#520D83"/>
</radialGradient>
<radialGradient id="paint1_radial_10_419" cx="0" cy="0" r="1" gradientUnits="userSpaceOnUse" gradientTransform="translate(500.25 684.85) scale(353.524 370.981)">
<stop stop-color="#B06239"/>
<stop offset="0.17" stop-color="#A55B34"/>
<stop offset="0.47" stop-color="#864927"/>
<stop offset="0.86" stop-color="#552C13"/>
<stop offset="1" stop-color="#42210B"/>
</radialGradient>
<radialGradient id="paint2_radial_10_419" cx="0" cy="0" r="1" gradientUnits="userSpaceOnUse" gradientTransform="translate(500.25 655.65) scale(353.524 370.981)">
<stop stop-color="#B06239"/>
<stop offset="0.17" stop-color="#A55B34"/>
<stop offset="0.47" stop-color="#864927"/>
<stop offset="0.86" stop-color="#552C13"/>
<stop offset="1" stop-color="#42210B"/>
</radialGradient>
<radialGradient id="paint3_radial_10_419" cx="0" cy="0" r="1" gradientUnits="userSpaceOnUse" gradientTransform="translate(500.25 626.497) scale(353.523 370.98)">
<stop stop-color="#B06239"/>
<stop offset="0.17" stop-color="#A55B34"/>
<stop offset="0.47" stop-color="#864927"/>
<stop offset="0.86" stop-color="#552C13"/>
<stop offset="1" stop-color="#42210B"/>
</radialGradient>
<radialGradient id="paint4_radial_10_419" cx="0" cy="0" r="1" gradientUnits="userSpaceOnUse" gradientTransform="translate(500.25 596.15) scale(353.524 370.981)">
<stop stop-color="#B06239"/>
<stop offset="0.17" stop-color="#A55B34"/>
<stop offset="0.47" stop-color="#864927"/>
<stop offset="0.86" stop-color="#552C13"/>
<stop offset="1" stop-color="#42210B"/>
</radialGradient>
<radialGradient id="paint5_radial_10_419" cx="0" cy="0" r="1" gradientUnits="userSpaceOnUse" gradientTransform="translate(500.25 568.15) scale(353.524 370.981)">
<stop stop-color="#B06239"/>
<stop offset="0.17" stop-color="#A55B34"/>
<stop offset="0.47" stop-color="#864927"/>
<stop offset="0.86" stop-color="#552C13"/>
<stop offset="1" stop-color="#42210B"/>
</radialGradient>
<clipPath id="clip0_10_419">
<rect width="1000" height="700" fill="white"/>
</clipPath>
</defs>
</svg>
